X:1
T: The Melodious Foot of the Glen
T: 1st setting
R:Reel
Q: 232
K:D
M:4/4
L:1/8
|:D2 ((3FED) FA AB|de fd Bd Ad|BB BA FA dB|AG FD EG FE|
D2 ((3FED) FA AB|de fd Bd Ad|BB BA FA dB|AG FD E2 D2|
de fg af df|af df eB BA|de fg af df|ab af e2 d2|
de fg af bf|af df ed BA|BB BA FA dB|AG FD EG FE:|
